{
  "compressionlevel": -1,
  "height": 40,
  "infinite": false,
  "layers": [
    {
      "id": 1,
      "image": "../world/forest-mine.png",
      "name": "background",
      "opacity": 1,
      "type": "imagelayer",
      "visible": true,
      "x": 0,
      "y": 0
    },
    {
      "draworder": "topdown",
      "id": 2,
      "name": "collisions",
      "objects": [
        { "height": 55, "id": 1, "name": "north", "width": 2400, "x": 0, "y": 0 },
        { "height": 55, "id": 2, "name": "south", "width": 2400, "x": 0, "y": 1545 },
        { "height": 1600, "id": 3, "name": "west", "width": 55, "x": 0, "y": 0 },
        { "height": 1600, "id": 4, "name": "east", "width": 55, "x": 2345, "y": 0 },
        { "height": 250, "id": 5, "name": "upper-spine", "width": 330, "x": 730, "y": 55 },
        { "height": 300, "id": 6, "name": "left-mass", "width": 330, "x": 55, "y": 560 },
        { "height": 200, "id": 7, "name": "center-island", "width": 290, "x": 900, "y": 670 },
        { "height": 240, "id": 8, "name": "upper-right-island", "width": 350, "x": 1280, "y": 340 },
        { "height": 260, "id": 9, "name": "right-mass", "width": 330, "x": 2015, "y": 570 },
        { "height": 95, "id": 10, "name": "lower-center-island", "width": 360, "x": 760, "y": 1450 },
        { "height": 240, "id": 11, "name": "lower-right-island", "width": 330, "x": 1450, "y": 1100 }
      ],
      "opacity": 1,
      "type": "objectgroup",
      "visible": true,
      "x": 0,
      "y": 0
    },
    {
      "draworder": "topdown",
      "id": 3,
      "name": "world-objects",
      "objects": [
        { "id": 20, "name": "player-spawn", "point": true, "type": "spawn", "x": 220, "y": 1330 },
        { "id": 21, "name": "wild-forest", "point": true, "type": "portal", "x": 165, "y": 1390 },
        { "id": 22, "name": "mine-ore-1", "point": true, "type": "ore-slot", "x": 470, "y": 280 },
        { "id": 23, "name": "mine-ore-2", "point": true, "type": "ore-slot", "x": 905, "y": 390 },
        { "id": 24, "name": "mine-ore-3", "point": true, "type": "ore-slot", "x": 1450, "y": 225 },
        { "id": 25, "name": "mine-ore-4", "point": true, "type": "ore-slot", "x": 2070, "y": 300 },
        { "id": 26, "name": "mine-ore-5", "point": true, "type": "ore-slot", "x": 1110, "y": 700 },
        { "id": 27, "name": "mine-ore-6", "point": true, "type": "ore-slot", "x": 1690, "y": 720 },
        { "id": 28, "name": "mine-ore-7", "point": true, "type": "ore-slot", "x": 500, "y": 1050 },
        { "id": 29, "name": "mine-ore-8", "point": true, "type": "ore-slot", "x": 1070, "y": 1090 },
        { "id": 30, "name": "mine-ore-9", "point": true, "type": "ore-slot", "x": 1530, "y": 1010 },
        { "id": 31, "name": "mine-ore-10", "point": true, "type": "ore-slot", "x": 2070, "y": 1100 },
        { "id": 32, "name": "mine-ore-11", "point": true, "type": "ore-slot", "x": 1260, "y": 1430 }
      ],
      "opacity": 1,
      "type": "objectgroup",
      "visible": true,
      "x": 0,
      "y": 0
    }
  ],
  "nextlayerid": 4,
  "nextobjectid": 33,
  "orientation": "orthogonal",
  "renderorder": "right-down",
  "tiledversion": "1.11.0",
  "tileheight": 40,
  "tilesets": [],
  "tilewidth": 40,
  "type": "map",
  "version": "1.10",
  "width": 60
}
